mentis/img/hero-slider-bg.svg

<svg width="789" height="623" xmlns="http://www.w3.org/2000/svg"><path d="M763.345 410.416H589.096v-51.309h102.62c14.175 0 25.655-11.48 25.655-25.654 0-14.175-11.48-25.655-25.655-25.655h-102.62V256.49h92.218v-.162c.323 0 .592.162.862.162 14.121 0 25.547-11.426 25.547-25.493 0-14.121-11.426-25.547-25.547-25.547-.27 0-.539.216-.862.216v-.485h-92.218v-76.91H409.51V25.654C409.51 11.479 398.084 0 383.855 0c-14.175 0-25.601 11.479-25.601 25.654v102.617H178.669v76.91H64.461c-14.175 0-25.655 11.48-25.655 25.654 0 14.175 11.48 25.655 25.655 25.655h114.208v51.308H76.049c-14.175 0-25.655 11.48-25.655 25.655 0 14.174 11.48 25.654 25.655 25.654h102.62v51.309H26.248c-.216 0-.377-.108-.593-.108C11.48 410.308 0 421.788 0 435.963c0 14.12 11.48 25.654 25.655 25.654v.108h153.014v76.963h76.965V623h51.31v-84.312h51.31V623h51.256v-84.312h51.31V623h51.311v-84.312h76.965v-76.963h174.249c14.175 0 25.655-11.48 25.655-25.655 0-14.174-11.48-25.654-25.655-25.654" fill="#3E44A9" fill-rule="evenodd"/></svg>

<?xml version="1.0" encoding="UTF-8"?>
<svg width="789px" height="623px" viewBox="0 0 789 623" version="1.1" xmlns="http://www.w3.org/2000/svg" xmlns:xlink="http://www.w3.org/1999/xlink">
    <title>Fill 1</title>
    <g id="Page-1" stroke="none" stroke-width="1" fill="none" fill-rule="evenodd">
        <path d="M763.345,410.416 L589.096,410.416 L589.096,359.107 L691.716,359.107 C705.891,359.107 717.371,347.627 717.371,333.453 C717.371,319.278 705.891,307.798 691.716,307.798 L589.096,307.798 L589.096,256.49 L681.314,256.49 L681.314,256.328 C681.637,256.328 681.906,256.49 682.176,256.49 C696.297,256.49 707.723,245.064 707.723,230.997 C707.723,216.876 696.297,205.45 682.176,205.45 C681.906,205.45 681.637,205.666 681.314,205.666 L681.314,205.181 L589.096,205.181 L589.096,128.271 L409.51,128.271 L409.51,25.654 C409.51,11.479 398.084,0 383.855,0 C369.68,0 358.254,11.479 358.254,25.654 L358.254,128.271 L178.669,128.271 L178.669,205.181 L76.049,205.181 L64.461,205.181 C50.286,205.181 38.806,216.661 38.806,230.835 C38.806,245.01 50.286,256.49 64.461,256.49 L76.049,256.49 L178.669,256.49 L178.669,307.798 L76.049,307.798 C61.874,307.798 50.394,319.278 50.394,333.453 C50.394,347.627 61.874,359.107 76.049,359.107 L178.669,359.107 L178.669,410.416 L26.248,410.416 C26.032,410.416 25.871,410.308 25.655,410.308 C11.48,410.308 0,421.788 0,435.963 C0,450.083 11.48,461.617 25.655,461.617 L25.655,461.725 L178.669,461.725 L178.669,538.688 L255.634,538.688 L255.634,623 L306.944,623 L306.944,538.688 L358.254,538.688 L358.254,623 L409.51,623 L409.51,538.688 L460.82,538.688 L460.82,623 L512.131,623 L512.131,538.688 L589.096,538.688 L589.096,461.725 L763.345,461.725 C777.52,461.725 789,450.245 789,436.07 C789,421.896 777.52,410.416 763.345,410.416" id="Fill-1" fill="#3E44A9"></path>
    </g>
</svg>
